public/images/icons/conclusion.svg

<svg width="20" height="18" viewBox="0 0 20 18" fill="none" xmlns="http://www.w3.org/2000/svg">
<path id="Union" fill-rule="evenodd" clip-rule="evenodd" d="M17.5 0.5H2.5C1.11929 0.5 0 1.58731 0 2.92857C0 4.26983 1.11929 5.35714 2.5 5.35714L2.5 15.0714C2.5 16.4127 3.61929 17.5 5 17.5H15C16.3807 17.5 17.5 16.4127 17.5 15.0714V5.35714C18.8807 5.35714 20 4.26983 20 2.92857C20 1.58731 18.8807 0.5 17.5 0.5ZM3.75 15.0714L3.75 2.92857H11.25V16.2857H5C4.30964 16.2857 3.75 15.7421 3.75 15.0714ZM13.75 2.92857L13.75 16.2857H15C15.6904 16.2857 16.25 15.7421 16.25 15.0714V2.92857H13.75Z" fill="white"/>
</svg>

<svg xmlns="http://www.w3.org/2000/svg" width="20" height="18" fill="none"><path fill="#fff" fill-rule="evenodd" d="M17.5.5h-15C1.12.5 0 1.587 0 2.929c0 1.34 1.12 2.428 2.5 2.428v9.714C2.5 16.413 3.62 17.5 5 17.5h10c1.38 0 2.5-1.087 2.5-2.429V5.357c1.38 0 2.5-1.087 2.5-2.428C20 1.587 18.88.5 17.5.5ZM3.75 15.071V2.93h7.5v13.357H5c-.69 0-1.25-.544-1.25-1.215Zm10-12.142v13.357H15c.69 0 1.25-.544 1.25-1.215V2.93h-2.5Z" clip-rule="evenodd"/></svg>
